X:5177
T:Polka. GHW.020
O:england
M:2/4
L:1/16
Q:100
S:George H.Watson,MS,Swanton Abbott,Norfolk,1850-1880
R:Polka
A:Norfolk
N:rests added Bars 16,24. CGP
K:F
a2ef g2f2|e2d2 d^cd2|a2ce a2g2|g2f2 fefg|a2ef g2f2|e2d2 d^cd2|a2d2 ceag
|
f2f2f2 z2:|
|:G2e2 cBce|a2g2 g^fg2|=f2^c2 e2d2|d2B2 dcBA|G2e2 cBce|a2g2 g^fg2|g2G2e
3d
|
f2f2f2z2:|
|:f4 e3d|d2c2 c4|cd^de a2g2|fg^ga d2c2|f4 e3d|d2c2 c4|cdef a3g|f2f2f2z2
:|


